X: 70
T: Missa De virginibus / Credo
N: Derived from Rue1015c-Missa_De_virginibus-Credo.krn
C: Pierre de la Rue
%%abc-version 2.0
%%abcx-abcm2ps-target-version 5.9.1 (29 Sep 2008)
%%abc-creator hum2abc beta
%%abcx-conversion-date 2019/02/17 08:01:12
%%abc-edited-by Jesse Rodin
%%abc-edited-by Chris Gage 06-24-2013
%%abcx-initial-encoding-date 2013/08/05/
%%humdrum-veritas 151758595
%%humdrum-veritas-data 3223645949
%%linebreak <none>
%%barnumbers 0
L: 1/4
M: 4/2
Q: 1/2=120
%%staves [1 2 3 4]
V: 1 clef=treble
V: 2 clef=treble-8
V: 3 clef=treble-8
V: 4 clef=bass
K: C
[V:1] z8 | 
[V:2] z4f4- | 
[V:3] z8 | 
[V:4] F,8 | 
[V:1] z8 | 
[V:2] f2d2e2c2 | 
[V:3] z8 | 
[V:4] F,4G,2E,2 | 
[V:1] z4c4- | 
[V:2] d3ef2g2- | 
[V:3] z4c4- | 
[V:4] F,2F,3E,C,2 | 
[V:1] c2A2B2G2 | 
[V:2] gff4e2 | 
[V:3] c4d2B2 | 
[V:4] F,2A,2G,4 | 
[V:1] A3Bc2d2- | 
[V:2] f4z4 | 
[V:3] c2c3BG2 | 
[V:4] F,4z4 | 
[V:1] dcc4B2 | 
[V:2] z8 | 
[V:3] c2e2d4 | 
[V:4] z8 | 
[V:1] c8 | 
[V:2] z8 | 
[V:3] c2f2f2e2- | 
[V:4] z8 | 
[V:1] z2f2f2e2- | 
[V:2] z8 | 
[V:3] e2dcd2c2- | 
[V:4] z8 | 
[V:1] e2dcd2c2- | 
[V:2] z8 | 
[V:3] c2f2f2e2- | 
[V:4] z8 | 
[V:1] c2f2f2e2- | 
[V:2] z8 | 
[V:3] e2dcd2c2 | 
[V:4] z8 | 
[V:1] e2dcB2G2 | 
[V:2] z8 | 
[V:3] cdefg2e2 | 
[V:4] z8 | 
[V:1] A8 | 
[V:2] z4c4 | 
[V:3] f8 | 
[V:4] F,6F,2 | 
[V:1] z8 | 
[V:2] c2d4cB | 
[V:3] z8 | 
[V:4] F,2F,2F,4- | 
[V:1] z8 | 
[V:2] A2c2B4 | 
[V:3] z8 | 
[V:4] F,4G,3F, | 
[V:1] z8 | 
[V:2] A2d3^c^c2 | 
[V:3] z8 | 
[V:4] D,2F,2E,4 | 
[V:1] z8 | 
[V:2] d8 | 
[V:3] z8 | 
[V:4] D,4z2G,2- | 
[V:1] z8 | 
[V:2] z2d3ef2- | 
[V:3] z8 | 
[V:4] G,A,_B,4A,G, | 
[V:1] z4c4 | 
[V:2] f2edcdef | 
[V:3] z8 | 
[V:4] F,G,A,_B,C2C2- | 
[V:1] c2d4cB | 
[V:2] g2f4e2 | 
[V:3] z8 | 
[V:4] C2_B,A,G,4 | 
[V:1] A2c2B4 | 
[V:2] f4z4 | 
[V:3] z2f2g3f | 
[V:4] F,4z4 | 
[V:1] A2d4^c2 | 
[V:2] z8 | 
[V:3] d2f2e4 | 
[V:4] z8 | 
[V:1] d4z2d2- | 
[V:2] z8 | 
[V:3] d8 | 
[V:4] z8 | 
[V:1] def4ed | 
[V:2] z8 | 
[V:3] z2d3ef2- | 
[V:4] z8 | 
[V:1] c2d2A4 | 
[V:2] z8 | 
[V:3] f2edc2d2 | 
[V:4] z8 | 
[V:1] z2A4A2 | 
[V:2] z8 | 
[V:3] A2c3BAG | 
[V:4] z8 | 
[V:1] A2A2A4 | 
[V:2] z8 | 
[V:3] F4z2f2- | 
[V:4] z8 | 
[V:1] z2A4A2- | 
[V:2] z8 | 
[V:3] f2f2f2f2 | 
[V:4] z8 | 
[V:1] A2GFE2FG | 
[V:2] z8 | 
[V:3] c4z2f2- | 
[V:4] z8 | 
[V:1] ABc2A2c2- | 
[V:2] z4z2c2- | 
[V:3] f2f2f2ed | 
[V:4] z2F,4F,2 | 
[V:1] cBA2G4 | 
[V:2] c2c2c2c2 | 
[V:3] c2f4e2 | 
[V:4] F,2F,2C,4 | 
[V:1] F8 | 
[V:2] d2c4BA | 
[V:3] f8 | 
[V:4] F,8 | 
[V:1] z8 | 
[V:2] G4z2c2 | 
[V:3] z8 | 
[V:4] z2E,2F,2A,2- | 
[V:1] z8 | 
[V:2] d2f3edc | 
[V:3] z8 | 
[V:4] A,G,F,E,D,2G,2- | 
[V:1] z8 | 
[V:2] d2c4B2 | 
[V:3] z8 | 
[V:4] G,F,E,2D,4 | 
[V:1] z2c4c2 | 
[V:2] c8 | 
[V:3] z8 | 
[V:4] C,8 | 
[V:1] c2c2d2c2- | 
[V:2] z8 | 
[V:3] z2f4f2 | 
[V:4] z8 | 
[V:1] c2BAG4 | 
[V:2] z8 | 
[V:3] f2f2e4 | 
[V:4] z8 | 
[V:1] z2c2c2c2 | 
[V:2] z8 | 
[V:3] f4z2f2 | 
[V:4] z8 | 
[V:1] d2f3edc | 
[V:2] z8 | 
[V:3] f2f2g3e | 
[V:4] z8 | 
[V:1] d2c4B2 | 
[V:2] z8 | 
[V:3] fedcd4 | 
[V:4] z8 | 
[V:1] c4z4 | 
[V:2] z2G2A2B2 | 
[V:3] c4z4 | 
[V:4] C,2C,2F,2E,2 | 
[V:1] z4z2G2 | 
[V:2] c2BAG4 | 
[V:3] z2e2e2e2 | 
[V:4] C,8 | 
[V:1] A2B2c2BA | 
[V:2] z4z2G2 | 
[V:3] f2edc4 | 
[V:4] z4C,4 | 
[V:1] G4z4 | 
[V:2] G2G2A2B2 | 
[V:3] z8 | 
[V:4] C,2C,2F,2E,2 | 
[V:1] z2G2G2G2 | 
[V:2] c2BAG4 | 
[V:3] z2e2e2e2 | 
[V:4] C,8 | 
[V:1] A2B2c2BA | 
[V:2] z8 | 
[V:3] f2d2c4 | 
[V:4] z8 | 
[V:1] G2c3BGA | 
[V:2] z2g3fe2 | 
[V:3] z8 | 
[V:4] z2C,3D,E,F, | 
[V:1] B2G2A3G | 
[V:2] d2e2cdef | 
[V:3] z4z2c2- | 
[V:4] G,2E,2F,2C,2- | 
[V:1] EFG3FED | 
[V:2] g2c2z2c2- | 
[V:3] cBGAB2G2 | 
[V:4] C,D,E,F,G,2C,2 | 
[V:1] C2c3BGA | 
[V:2] cdefg3f | 
[V:3] A3GEFG2- | 
[V:4] z2C,3D,E,F, | 
[V:1] B2G2A2_BA | 
[V:2] d2e2c2_B2 | 
[V:3] G2c3_BGA | 
[V:4] G,2E,2F,2G,2 | 
[V:1] GFF4E2 | 
[V:2] c8 | 
[V:3] _BAGFG4 | 
[V:4] E,2F,2C,4 | 
[V:1] F8 | 
[V:2] z4z2f2- | 
[V:3] F8 | 
[V:4] z4F,4 | 
[V:1] z8 | 
[V:2] f2e2f2a2- | 
[V:3] z8 | 
[V:4] G,4F,2C2- | 
[V:1] z4z2c2- | 
[V:2] afgefedc | 
[V:3] z8 | 
[V:4] CA,B,G,A,4 | 
[V:1] c2B2c2e2- | 
[V:2] d4c4 | 
[V:3] z4z2c2- | 
[V:4] G,4C,4 | 
[V:1] ecdBcBAG | 
[V:2] z8 | 
[V:3] cABGA2d2- | 
[V:4] z8 | 
[V:1] A4G4 | 
[V:2] z2f2f2e2 | 
[V:3] d2c3BB2 | 
[V:4] F,4G,4 | 
[V:1] z8 | 
[V:2] f2a3fge | 
[V:3] c4z4 | 
[V:4] F,2C3A,B,G, | 
[V:1] z2c2c2B2 | 
[V:2] fedcd4 | 
[V:3] z8 | 
[V:4] A,2A,2G,4 | 
[V:1] c2e3cdB | 
[V:2] c4z4 | 
[V:3] z2c3ABG | 
[V:4] C,4z4 | 
[V:1] cBAGA4 | 
[V:2] z4z2f2 | 
[V:3] A2d4c2- | 
[V:4] z4F,4 | 
[V:1] G4z2A2- | 
[V:2] d2e2f2f2- | 
[V:3] c2B2c4 | 
[V:4] G,4F,4 | 
[V:1] A2A2A2A2 | 
[V:2] f2edc2f2 | 
[V:3] c4c2c2 | 
[V:4] F,2F,4F,2 | 
[V:1] B2A3GFE | 
[V:2] e2fedcc2- | 
[V:3] B2c2A4- | 
[V:4] G,2F,3E,D,C, | 
[V:1] F2G2E2c2- | 
[V:2] cBB2c4- | 
[V:3] A2G2G4 | 
[V:4] D,2E,2C,4 | 
[V:1] cBAGA2GF | 
[V:2] c8- | 
[V:3] z4z2c2- | 
[V:4] C,8- | 
[V:1] E8 | 
[V:2] c4z4 | 
[V:3] cBAGA2G2 | 
[V:4] C,8 | 
[V:1] z2E4E2 | 
[V:2] z2c4c2 | 
[V:3] G4z2G2- | 
[V:4] z2C,4C,2 | 
[V:1] E4E2F2- | 
[V:2] c4c2A2- | 
[V:3] G2G2A4 | 
[V:4] C,4C,2D,2- | 
[V:1] FEF2D4- | 
[V:2] A2A2_B4- | 
[V:3] A2F3EF2 | 
[V:4] D,C,D,2_B,,4- | 
[V:1] D2EDE4 | 
[V:2] B2G2G4 | 
[V:3] G6E2 | 
[V:4] B,,2C,_B,,C,4- | 
[V:1] z2E4E2 | 
[V:2] z2c2c2c2- | 
[V:3] E4z2G2- | 
[V:4] C,4z2C,2 | 
[V:1] E2E4F2- | 
[V:2] c2c4A2- | 
[V:3] G2G2A4 | 
[V:4] C,2C,4D,2- | 
[V:1] FEF2D4- | 
[V:2] A2A2_B4 | 
[V:3] A2F3EF2 | 
[V:4] D,C,D,2_B,,4- | 
[V:1] D2EDE4 | 
[V:2] _B2G4g2- | 
[V:3] G6E2 | 
[V:4] B,,2C,_B,,C,3D, | 
[V:1] C3DE2F2 | 
[V:2] gfedc3d | 
[V:3] E3FG2A2 | 
[V:4] E,F,G,2C,2F,2 | 
[V:1] G2A2B2c2- | 
[V:2] e2f2g2a2- | 
[V:3] B2c2d2e2- | 
[V:4] E,2A,2G,2C,2 | 
[V:1] c2BAB4 | 
[V:2] agf4e2 | 
[V:3] edc4B2 | 
[V:4] F,3A,G,4 | 
[V:1] A4z4 | 
[V:2] f4z2f2 | 
[V:3] c8 | 
[V:4] F,8 | 
[V:1] c4c2A2 | 
[V:2] f2ede2f2 | 
[V:3] z8 | 
[V:4] z8 | 
[V:1] B2c2d2cB | 
[V:2] g2e2d4 | 
[V:3] z4f4 | 
[V:4] z8 | 
[V:1] A4z4 | 
[V:2] z8 | 
[V:3] f2d2e2f2 | 
[V:4] D,4C,2D,2 | 
[V:1] z2A2A2A2 | 
[V:2] z4f4- | 
[V:3] g2fed4 | 
[V:4] E,2C,2D,4 | 
[V:1] c6BA | 
[V:2] f2ede2f2 | 
[V:3] z8 | 
[V:4] z4A,4 | 
[V:1] B2c2d3c | 
[V:2] g2fed3e | 
[V:3] z4f4 | 
[V:4] G,2A,2_B,3A, | 
[V:1] A3_BcBcd | 
[V:2] fefga4 | 
[V:3] f2d2edef | 
[V:4] F,2_B,2A,4 | 
[V:1] e2d4^c2 | 
[V:2] z8 | 
[V:3] g2f2e4 | 
[V:4] z4A,4 | 
[V:1] d8 | 
[V:2] z8 | 
[V:3] d2d2g3g | 
[V:4] F,2G,4F,E, | 
[V:1] z8 | 
[V:2] z4g4 | 
[V:3] f2d4^c2 | 
[V:4] D,2F,2E,4 | 
[V:1] d4B2c2- | 
[V:2] f2d2e2c2- | 
[V:3] d4z4 | 
[V:4] D,4z4 | 
[V:1] c2BAG2B2 | 
[V:2] cdefedg2- | 
[V:3] z8 | 
[V:4] z8 | 
[V:1] A4G4 | 
[V:2] g2^f2g4 | 
[V:3] d4B2c2- | 
[V:4] D,4E,2C,2- | 
[V:1] z8 | 
[V:2] z4z2g2 | 
[V:3] c2BAG2B2 | 
[V:4] C,D,E,F,G,4 | 
[V:1] d4B2c2- | 
[V:2] f2d2g2e2- | 
[V:3] A4G4 | 
[V:4] D,4E,2C,2- | 
[V:1] c2BAG2B2 | 
[V:2] efgfd2g2- | 
[V:3] z8 | 
[V:4] C,D,E,F,G,4 | 
[V:1] A4G2EF | 
[V:2] g2^f2g4 | 
[V:3] d4B2c2- | 
[V:4] D,4z4 | 
[V:1] GAB3AG2- | 
[V:2] z8 | 
[V:3] c2BAG2B2 | 
[V:4] z8 | 
[V:1] G2^F2G4 | 
[V:2] z2c2d2e2 | 
[V:3] A4G4 | 
[V:4] z4G,4 | 
[V:1] z4A4 | 
[V:2] f8 | 
[V:3] c8 | 
[V:4] F,8 | 
[V:1] c6B2 | 
[V:2] f4f4- | 
[V:3] c4c4- | 
[V:4] F,4F,4- | 
[V:1] A4G4 | 
[V:2] f4e4 | 
[V:3] c4c4 | 
[V:4] F,4C,4 | 
[V:1] F4E4 | 
[V:2] d4z2g2- | 
[V:3] A4G3A | 
[V:4] D,4E,3F, | 
[V:1] D4z2G2- | 
[V:2] g2fed2G2 | 
[V:3] B8- | 
[V:4] G,8 | 
[V:1] G2FED2G2- | 
[V:2] g6fe | 
[V:3] B8 | 
[V:4] G,4G,4- | 
[V:1] GABcd2G2 | 
[V:2] d4d4- | 
[V:3] B8- | 
[V:4] G,8- | 
[V:1] G8 ||  
[V:2] d8 ||  
[V:3] B8 ||  
[V:4] G,8 ||  
[V:1]  [K:C] [K:clef=treble][M:2/1]A8 | 
[V:2]  [K:C] [K:clef=treble-8][M:2/1]f6f2 | 
[V:3]  [K:C] [K:clef=treble-8][M:2/1]c8 | 
[V:4]  [K:C] [K:clef=bass][M:2/1]F,8 | 
[V:1] A4A4- | 
[V:2] f4f4 | 
[V:3] c4c4 | 
[V:4] F,4F,4 | 
[V:1] A4A4 | 
[V:2] f6ed | 
[V:3] c8 | 
[V:4] F,4F,4- | 
[V:1] c6BA | 
[V:2] c4c4 | 
[V:3] A4c4- | 
[V:4] F,2E,D,C,4 | 
[V:1] G4G4 | 
[V:2] c2c3def | 
[V:3] c2BAG4 | 
[V:4] C,4C,2C,2- | 
[V:1] G4G2G2- | 
[V:2] g6fe | 
[V:3] G4B4- | 
[V:4] C,D,E,F,G,4- | 
[V:1] GABcd4 | 
[V:2] d4d4 | 
[V:3] B2AGA2B2 | 
[V:4] G,2F,E,F,2G,2 | 
[V:1] e6c2 | 
[V:2] c4z2e2- | 
[V:3] G4g4- | 
[V:4] C,4z2C2 | 
[V:1] c4z2e2- | 
[V:2] e2dcd2c2- | 
[V:3] g4g4 | 
[V:4] C2B,A,B,2C2 | 
[V:1] e2dcd2e2 | 
[V:2] c2BAB2c2 | 
[V:3] g4g4 | 
[V:4] G,4z4 | 
[V:1] B2e4dc | 
[V:2] G2cdefe2 | 
[V:3] g4g4- | 
[V:4] z2C4B,A, | 
[V:1] d2e2f4 | 
[V:2] d2c4BA | 
[V:3] g4f4- | 
[V:4] B,2C2F,3E, | 
[V:1] f4e4 | 
[V:2] B4z2c2 | 
[V:3] f4g4 | 
[V:4] D,4C,4 | 
[V:1] e4e2c2- | 
[V:2] G2c3def | 
[V:3] g2g4e2- | 
[V:4] z2C2C2C2- | 
[V:1] c2BAB2d2- | 
[V:2] g2a2g2a2- | 
[V:3] e2f2e2f2- | 
[V:4] C2F,2G,2F,2 | 
[V:1] d2c4B2 | 
[V:2] agefg4 | 
[V:3] fedcd4 | 
[V:4] A,4G,4 | 
[V:1] c8 | 
[V:2] e4z2g2- | 
[V:3] c8- | 
[V:4] C,8 | 
[V:1] z8 | 
[V:2] g2g2a2g2- | 
[V:3] c8 | 
[V:4] z4z2C2- | 
[V:1] z8 | 
[V:2] g2e2z2g2- | 
[V:3] z8 | 
[V:4] C2C2D2C2- | 
[V:1] z8 | 
[V:2] g2g2a4 | 
[V:3] z8 | 
[V:4] CA,B,2A,2C2- | 
[V:1] z8 | 
[V:2] g2e2z2a2- | 
[V:3] z8 | 
[V:4] C2C2D2C2 | 
[V:1] z8 | 
[V:2] a2a4f2 | 
[V:3] z8 | 
[V:4] A,2D4D2 | 
[V:1] z8 | 
[V:2] g2ecefg2- | 
[V:3] z8 | 
[V:4] B,2C2G,2_B,2- | 
[V:1] z8 | 
[V:2] g2f4e2 | 
[V:3] z8 | 
[V:4] B,A,G,F,G,4 | 
[V:1] z4A4 | 
[V:2] f8- | 
[V:3] c4c2c2 | 
[V:4] F,8- | 
[V:1] A2A2A4 | 
[V:2] f8 | 
[V:3] c4c4 | 
[V:4] F,8 | 
[V:1] G2c3Bc2 | 
[V:2] z8 | 
[V:3] e4f3e | 
[V:4] z8 | 
[V:1] d2B2c2A2- | 
[V:2] z4z2c2 | 
[V:3] f2g2e2f2 | 
[V:4] z4z2F,2- | 
[V:1] AGA2B2G2 | 
[V:2] f2f2d2g2 | 
[V:3] d3cd2e2 | 
[V:4] F,E,F,2G,2E,2 | 
[V:1] A2F3EF2 | 
[V:2] f3ed4 | 
[V:3] c2d3cBA | 
[V:4] F,2D,4D,2 | 
[V:1] GFEDE2FE | 
[V:2] c8- | 
[V:3] G2A2G4 | 
[V:4] E,2F,2C,4 | 
[V:1] F8 | 
[V:2] c8 | 
[V:3] F4z4 | 
[V:4] z2F,2F,3G, | 
[V:1] z8 | 
[V:2] z8 | 
[V:3] z2c2d2e2 | 
[V:4] A,2A,2_B,2G,2 | 
[V:1] z2A2A2B2 | 
[V:2] z8 | 
[V:3] f3ed2d2 | 
[V:4] F,4z4 | 
[V:1] c3BA2G2 | 
[V:2] z2c2d2e2 | 
[V:3] c4z4 | 
[V:4] z8 | 
[V:1] A4z4 | 
[V:2] f3ed2d2 | 
[V:3] z8 | 
[V:4] z2F,2F,3G, | 
[V:1] z8 | 
[V:2] c4z4 | 
[V:3] z2c2d2e2 | 
[V:4] A,2A,2_B,2G,2 | 
[V:1] z2A2A2B2 | 
[V:2] z4z2g2 | 
[V:3] f3ed2d2 | 
[V:4] F,2F,4G,2 | 
[V:1] c3BA2GF | 
[V:2] e2f3ga2 | 
[V:3] c8 | 
[V:4] A,2F,G,A,B,C2- | 
[V:1] G2A2_B4 | 
[V:2] g2f4e2 | 
[V:3] z8 | 
[V:4] CB,A,2G,4 | 
[V:1] A4z4 | 
[V:2] f8 | 
[V:3] A3Bc2d2- | 
[V:4] F,8 | 
[V:1] A3Bc2d2- | 
[V:2] z8 | 
[V:3] defde2d2- | 
[V:4] z8 | 
[V:1] defde2d2- | 
[V:2] z8 | 
[V:3] d2d2c2f2- | 
[V:4] z8 | 
[V:1] d2d2c2f2- | 
[V:2] z8 | 
[V:3] fefde2d2- | 
[V:4] z8 | 
[V:1] fefde2d2- | 
[V:2] z8 | 
[V:3] d2d2g3f | 
[V:4] z8 | 
[V:1] d2c4B2 | 
[V:2] z8 | 
[V:3] e2dcd4 | 
[V:4] z8 | 
[V:1] c8 | 
[V:2] z2f4f2 | 
[V:3] c8 | 
[V:4] F,6F,2 | 
[V:1] z8 | 
[V:2] e2f2g4 | 
[V:3] z8 | 
[V:4] A,2A,2G,2C2- | 
[V:1] z8 | 
[V:2] z2g4g2 | 
[V:3] z8 | 
[V:4] C2B,2C2B,A, | 
[V:1] z8 | 
[V:2] g2g2a4 | 
[V:3] z8 | 
[V:4] B,2C2F,2C2- | 
[V:1] z8 | 
[V:2] g4e2f2- | 
[V:3] z8 | 
[V:4] C2B,2C2D2- | 
[V:1] z8 | 
[V:2] fedcd4 | 
[V:3] z8 | 
[V:4] D2C4B,2 | 
[V:1] [M:3/1]G4A4G4 | 
[V:2] c6z6 | 
[V:3] z12 | 
[V:4] C12 | 
[V:1] E4F4E4 | 
[V:2] z12 | 
[V:3] [M:3/1]c4d4c4 | 
[V:4] z12 | 
[V:1] C2D2E2F2G4 | 
[V:2] z12 | 
[V:3] A8B4 | 
[V:4] z12 | 
[V:1] A6c2B4 | 
[V:2] z12 | 
[V:3] A4c4d4 | 
[V:4] z12 | 
[V:1] A6^F2^G4 | 
[V:2] z12 | 
[V:3] c4A4B4 | 
[V:4] z12 | 
[V:1] A12 | 
[V:2] [M:3/1]e4f4e4 | 
[V:3] A12 | 
[V:4] [M:3/1]z12 | 
[V:1] z12 | 
[V:2] c4f2g2a2_b2 | 
[V:3] z12 | 
[V:4] A,4_B,4A,4 | 
[V:1] z12 | 
[V:2] a4g6f2 | 
[V:3] z12 | 
[V:4] F,4G,2A,2B,2C2 | 
[V:1] z12 | 
[V:2] f6e2e4 | 
[V:3] z12 | 
[V:4] A,4G,8 | 
[V:1] A8A4 | 
[V:2] f4f4f4 | 
[V:3] c6c2c4 | 
[V:4] F,4F,6F,2 | 
[V:1] A4G4c4- | 
[V:2] f4e4g4- | 
[V:3] c4c8 | 
[V:4] F,4C,4C,4 | 
[V:1] c2B2B4z4 | 
[V:2] g4g4z4 | 
[V:3] d8z4 | 
[V:4] G,8z4 | 
[V:1] d8d4 | 
[V:2] g4g4d4 | 
[V:3] d8B4 | 
[V:4] G,4G,4G,4- | 
[V:1] d4d4d4 | 
[V:2] g6f2f4 | 
[V:3] G4A4A4 | 
[V:4] G,2G,2D,4D,4 | 
[V:1] B6c2d4 | 
[V:2] g8z4 | 
[V:3] G6A2B4 | 
[V:4] G,8z4 | 
[V:1] e8z4 | 
[V:2] e6f2g4 | 
[V:3] c8z4 | 
[V:4] C,6D,2E,4 | 
[V:1] c8c4- | 
[V:2] a6g2e4 | 
[V:3] c6d2e4 | 
[V:4] F,6E,2C,4 | 
[V:1] c4c4c4 | 
[V:2] c6B2G4 | 
[V:3] f6e2e4 | 
[V:4] F,4C,8 | 
[V:1] c6d2e4 | 
[V:2] A8G4 | 
[V:3] f8g4 | 
[V:4] F,8E,4 | 
[V:1] f6e2e4 | 
[V:2] A4c8 | 
[V:3] f4g8 | 
[V:4] D,4C,8 | 
[V:1] f4d6c2 | 
[V:2] A4_B6G2 | 
[V:3] f8f4 | 
[V:4] D,8_B,,4 | 
[V:1] c6B2B4 | 
[V:2] G4z4g4 | 
[V:3] e4d8 | 
[V:4] C,4G,8 | 
[V:1] c12 | 
[V:2] e4f4g4 | 
[V:3] c4z4z4 | 
[V:4] C,4z4C4 | 
[V:1] z4z4c4 | 
[V:2] a4f2d2e4 | 
[V:3] z12 | 
[V:4] A,4B,4C4 | 
[V:1] A4B4c4 | 
[V:2] d8z4 | 
[V:3] z4z4f4 | 
[V:4] D4B,2G,2A,4 | 
[V:1] d4B2G2A4 | 
[V:2] z12 | 
[V:3] d4e4f4 | 
[V:4] G,8D,4 | 
[V:1] G12 | 
[V:2] z4z4g4 | 
[V:3] g4e2c2d4 | 
[V:4] G,12 | 
[V:1] z12 | 
[V:2] e4f4g4 | 
[V:3] c4z4z4 | 
[V:4] z4z4C4 | 
[V:1] z4z4c4 | 
[V:2] a4f2d2e4 | 
[V:3] z12 | 
[V:4] A,4B,4C4 | 
[V:1] A4B4c4 | 
[V:2] d8c4 | 
[V:3] z4z4f4 | 
[V:4] D4B,2G,2A,4 | 
[V:1] d4B2G2A4 | 
[V:2] B2G2B2c2A4 | 
[V:3] d4e4f4 | 
[V:4] G,8D,4 | 
[V:1] G4G4G4 | 
[V:2] c6B2B4 | 
[V:3] g4e2c2d4 | 
[V:4] E,4G,8 | 
[V:1] E8z4 | 
[V:2] c8z4 | 
[V:3] c4c4c4 | 
[V:4] C,8z4 | 
[V:1] G4G4G4 | 
[V:2] B4B4B4 | 
[V:3] d12 | 
[V:4] G,4G,4G,4 | 
[V:1] E6F2G4 | 
[V:2] c8B4 | 
[V:3] z12 | 
[V:4] C,6D,2E,4 | 
[V:1] A6G2G4 | 
[V:2] A8e4 | 
[V:3] c4c4c4 | 
[V:4] F,6E,2E,4 | 
[V:1] A8z4 | 
[V:2] c4f4e4 | 
[V:3] A6B2c4 | 
[V:4] F,6G,2A,4 | 
[V:1] A4A4A4 | 
[V:2] f4e2d2e4 | 
[V:3] d6c2c4 | 
[V:4] D,4A,8 | 
[V:1] F6G2A4 | 
[V:2] d8z4 | 
[V:3] d8z4 | 
[V:4] D,8z4 | 
[V:1] _B4A8 | 
[V:2] f4f4f4 | 
[V:3] d4d4d4 | 
[V:4] D,4D,4D,4 | 
[V:1] G12 | 
[V:2] g6f2d4 | 
[V:3] B6c2d4 | 
[V:4] G,6A,2B,4 | 
[V:1] z12 | 
[V:2] c4f4e4- | 
[V:3] e4d6c2 | 
[V:4] C4B,4C4 | 
[V:1] G4G4G4 | 
[V:2] e2c2d8 | 
[V:3] c6B2B4 | 
[V:4] G,4G,8 | 
[V:1] E6F2G4 | 
[V:2] c6B2G4 | 
[V:3] [M:2/1]c12- | 
[V:4] C,6D,2E,4 | 
[V:1] A4G6F2 | 
[V:2] F4G4A4- | 
[V:3] c12- | 
[V:4] F,4E,4F,4- | 
[V:1] F6E2E4 | 
[V:2] A2F2G8 | 
[V:3] c12 | 
[V:4] F,4C,8 | 
[V:1] [M:2/1]F4z2A2- | 
[V:2] [M:2/1]F4z2f2- | 
[V:3] z8 | 
[V:4] [M:2/1]F,8 | 
[V:1] A2B2c4 | 
[V:2] f2g2e4 | 
[V:3] z8 | 
[V:4] z8 | 
[V:1] d8 | 
[V:2] d2g6 | 
[V:3] z8 | 
[V:4] z8 | 
[V:1] z2d4d2 | 
[V:2] g2g2f2d2 | 
[V:3] z8 | 
[V:4] z8 | 
[V:1] d2d2c2A2 | 
[V:2] f2g2a4- | 
[V:3] z4z2A2- | 
[V:4] z4z2F,2- | 
[V:1] c2d2e4 | 
[V:2] a2gfe4 | 
[V:3] A2B2c4 | 
[V:4] F,2D,2A,4 | 
[V:1] f3edcd2- | 
[V:2] d4z4 | 
[V:3] d8 | 
[V:4] D,2G,4G,2 | 
[V:1] d2cBA4 | 
[V:2] z4z2a2- | 
[V:3] z2d4d2 | 
[V:4] G,2G,2F,2D,2 | 
[V:1] z8 | 
[V:2] a2g2e2f2- | 
[V:3] d2d2c2A2 | 
[V:4] F,2G,2A,4- | 
[V:1] z8 | 
[V:2] f2edc3d | 
[V:3] c2d2e4 | 
[V:4] A,2G,F,E,4 | 
[V:1] [M:3/1]A4A4A4 | 
[V:2] d12 | 
[V:3] f12 | 
[V:4] D,12 | 
[V:1] _B4A6G2 | 
[V:2] [M:3/1]d4d4d4 | 
[V:3] z12 | 
[V:4] z12 | 
[V:1] c6B2B4 | 
[V:2] e4d8 | 
[V:3] z12 | 
[V:4] z12 | 
[V:1] c12 | 
[V:2] c12 | 
[V:3] [M:3/1]e4e4c4 | 
[V:4] [M:3/1]A,4A,4A,4 | 
[V:1] z12 | 
[V:2] z12 | 
[V:3] d4e6d2 | 
[V:4] _B,4G,8 | 
[V:1] A4A4A4 | 
[V:2] c4c4c4 | 
[V:3] f12 | 
[V:4] F,12 | 
[V:1] _B4G8 | 
[V:2] d4e6d2 | 
[V:3] z12 | 
[V:4] z4z4C,4 | 
[V:1] F4A6A2 | 
[V:2] f6e2c4- | 
[V:3] F4F4A4- | 
[V:4] D,4F,6E,2 | 
[V:1] c6B2G4 | 
[V:2] c2d2e2f2g4- | 
[V:3] A2B2c6B2 | 
[V:4] C,6D,2E,2F,2 | 
[V:1] d6c2B2A2 | 
[V:2] g4a6g2 | 
[V:3] G4d6G2 | 
[V:4] G,4D,6E,2 | 
[V:1] A6G2_B4 | 
[V:2] f6e2e4 | 
[V:3] c6_B2_B4 | 
[V:4] F,2G,2A,2_B,2G,4 | 
[V:1] A4G6F2 | 
[V:2] f4e4d4- | 
[V:3] c6_B2A4 | 
[V:4] F,4C,4F,4 | 
[V:1] F6E2E4 | 
[V:2] d4c8- | 
[V:3] _B4G8 | 
[V:4] _B,,4C,8 | 
[V:1] F12- | 
[V:2] c12 | 
[V:3] F12- | 
[V:4] F,,12- | 
[V:1] F12 |]  
[V:2] c12 |]  
[V:3] F12 |]  
[V:4] F,,12 |]  



